images/rn.svg

<?xml version="1.0" encoding="UTF-8" standalone="no"?><!DOCTYPE svg PUBLIC "-//W3C//DTD SVG 1.1//EN" "http://www.w3.org/Graphics/SVG/1.1/DTD/svg11.dtd"><svg width="100%" height="100%" viewBox="0 0 57 57" version="1.1" xmlns="http://www.w3.org/2000/svg" xmlns:xlink="http://www.w3.org/1999/xlink" xml:space="preserve" xmlns:serif="http://www.serif.com/" style="fill-rule:evenodd;clip-rule:evenodd;"><circle id="cir_1" cx="28.5" cy="28.5" r="24.5" style="fill:#fafafa;"/><circle id="cir_2" cx="28.5" cy="28.5" r="22.05" style="fill:#fafafa;stroke:#f00;stroke-width:2px;"/><g><path d="M22.06,14.349c-0.222,0.222 -0.311,0.504 -0.311,0.949c0,2.271 -2.582,7.198 -5.832,11.13c-0.698,0.831 -1.573,1.811 -1.944,2.182c-1.009,0.964 -0.861,1.558 0.296,1.187c0.757,-0.252 3.236,-2.167 4.334,-3.324c0.504,-0.534 0.949,-0.98 0.994,-0.98c0.134,0 0.074,5.684 -0.089,7.406c-0.089,0.934 -0.327,2.344 -0.549,3.116c-0.475,1.766 -0.475,2.345 0.044,3.576c0.49,1.188 0.742,1.484 1.262,1.484c0.504,0 0.668,-0.193 1.024,-1.202c0.356,-1.068 0.445,-2.137 0.608,-7.85c0.074,-2.656 0.208,-5.179 0.312,-5.61c0.208,-0.979 0.133,-1.246 -0.594,-2.196l-0.579,-0.757l0.742,-1.157c0.401,-0.638 1.203,-1.989 1.781,-3.028c0.579,-1.024 1.202,-2.062 1.395,-2.285c0.193,-0.237 0.356,-0.564 0.356,-0.727c0,-0.386 -1.187,-1.558 -1.84,-1.825c-0.95,-0.386 -1.098,-0.401 -1.41,-0.089Z" style="fill:#f00;fill-rule:nonzero;"/><path d="M37.108,14.067c-1.35,0.371 -5.001,0.964 -8.132,1.32c-1.365,0.149 -2.582,0.356 -2.701,0.46c-0.312,0.253 -0.282,0.683 0.089,1.455c0.312,0.623 0.312,0.771 0.237,5.194c-0.059,3.131 -0.148,4.927 -0.311,5.743c-0.119,0.653 -0.193,1.35 -0.134,1.558c0.134,0.623 0.653,1.439 1.024,1.632c0.282,0.164 0.416,0.134 0.891,-0.133c1.291,-0.772 5.238,-1.455 9.141,-1.603c1.9,-0.074 2.538,-0.044 2.716,0.104c0.163,0.134 0.222,0.505 0.222,1.558c0,1.544 -0.222,4.037 -0.46,5.268c-0.267,1.336 -1.157,2.82 -1.691,2.82c-0.119,0 -0.787,-0.312 -1.499,-0.683c-1.262,-0.667 -1.618,-0.727 -1.781,-0.296c-0.104,0.252 2.434,3.932 3.012,4.392c0.535,0.416 0.935,0.371 1.766,-0.178c1.915,-1.291 2.805,-3.621 3.176,-8.34c0.193,-2.374 0.327,-3.131 0.742,-4.036c0.163,-0.342 0.297,-0.772 0.297,-0.935c0,-0.386 -0.757,-1.01 -1.914,-1.544c-1.084,-0.504 -1.306,-0.534 -3.28,-0.282c-0.772,0.089 -1.9,0.208 -2.478,0.267l-1.084,0.089l0,-1.113c0,-0.623 0.075,-1.172 0.149,-1.216c0.089,-0.06 0.935,-0.193 1.899,-0.297c0.965,-0.119 1.87,-0.253 2.033,-0.312c0.46,-0.163 0.817,-0.519 0.817,-0.816c0,-0.638 -2.241,-1.276 -3.592,-1.024c-1.246,0.237 -1.217,0.267 -1.098,-0.772c0.06,-0.519 0.119,-0.949 0.134,-0.964c0.015,-0.015 0.801,-0.119 1.736,-0.253c1.87,-0.237 2.167,-0.311 2.567,-0.653c0.638,-0.549 0.119,-1.038 -1.528,-1.424c-0.713,-0.163 -1.113,-0.178 -1.796,-0.06c-0.49,0.089 -0.92,0.134 -0.935,0.104c-0.029,-0.029 0,-0.489 0.089,-1.024c0.074,-0.534 0.104,-1.068 0.074,-1.187c-0.044,-0.193 0.297,-0.297 1.885,-0.549c2.241,-0.371 3.042,-0.608 3.265,-0.979c0.237,-0.371 -0.015,-0.713 -0.831,-1.113c-0.935,-0.475 -1.514,-0.505 -2.716,-0.178Zm-4.852,3.22c0.074,0.148 0.178,0.742 0.222,1.335c0.089,1.069 0.089,1.069 -0.312,1.143c-0.86,0.178 -2.344,0.386 -2.76,0.386l-0.43,0l0.089,-1.35c0.044,-0.742 0.133,-1.395 0.178,-1.455c0.089,-0.074 0.876,-0.163 2.552,-0.282c0.179,-0.015 0.386,0.089 0.461,0.223Zm0.296,5.491l-0.044,1.009l-0.742,0.104c-0.401,0.059 -1.232,0.163 -1.811,0.237l-1.083,0.119l0,-2.167l0.935,-0.015c0.504,0 1.261,-0.059 1.662,-0.133c0.416,-0.06 0.831,-0.119 0.935,-0.134c0.148,-0.015 0.178,0.238 0.148,0.98Zm0.03,4.244l0,1.232l-1.588,0.252c-0.89,0.148 -1.751,0.297 -1.929,0.341c-0.341,0.089 -0.341,0.074 -0.341,-1.335l0,-1.425l1.009,-0.015c0.831,-0.015 2.686,-0.178 2.819,-0.267c0.015,0 0.03,0.534 0.03,1.217Z" style="fill:#f00;fill-rule:nonzero;"/><path d="M27.433,32.72c-0.119,0.282 0.074,1.01 0.697,2.746c0.579,1.588 0.905,2.048 1.499,2.048c0.727,0 1.024,-0.445 1.024,-1.544c0,-1.587 -0.356,-2.27 -1.618,-3.071c-0.742,-0.49 -1.454,-0.564 -1.602,-0.179Z" style="fill:#f00;fill-rule:nonzero;"/><path d="M30.653,31.875c-0.134,0.252 -0.015,0.578 0.668,1.929c1.276,2.493 1.973,3.012 2.819,2.152c0.431,-0.416 0.49,-1.277 0.163,-2.197c-0.282,-0.786 -0.549,-1.039 -1.721,-1.647c-1.143,-0.608 -1.692,-0.668 -1.929,-0.237Z" style="fill:#f00;fill-rule:nonzero;"/><path d="M25.043,31.83c-0.074,0.148 -0.178,0.46 -0.237,0.698c-0.06,0.222 -0.445,1.157 -0.861,2.077c-0.668,1.44 -0.772,1.766 -0.772,2.627c-0.014,0.786 0.045,1.053 0.282,1.321c1.039,1.157 2.048,0.356 2.746,-2.152c0.475,-1.662 0.46,-3.042 -0.015,-4.007c-0.386,-0.801 -0.89,-1.054 -1.143,-0.564Z" style="fill:#f00;fill-rule:nonzero;"/><path d="M34.392,30.717c-0.371,0.371 -0.103,1.009 1.306,3.102c0.713,1.024 1.099,1.32 1.737,1.32c0.831,0 1.202,-0.653 1.024,-1.855c-0.149,-0.92 -0.698,-1.513 -1.944,-2.092c-1.291,-0.594 -1.87,-0.727 -2.123,-0.475Z" style="fill:#f00;fill-rule:nonzero;"/></g></svg>

<?xml version="1.0" encoding="UTF-8" standalone="no"?>
<!DOCTYPE svg PUBLIC "-//W3C//DTD SVG 1.1//EN" "http://www.w3.org/Graphics/SVG/1.1/DTD/svg11.dtd">
<svg width="100%" height="100%" viewBox="0 0 57 57" version="1.1" xmlns="http://www.w3.org/2000/svg" xmlns:xlink="http://www.w3.org/1999/xlink" xml:space="preserve" xmlns:serif="http://www.serif.com/" style="fill-rule:evenodd;clip-rule:evenodd;">
    <g id="cir_1" transform="matrix(1.0198,0,0,1.03035,-0.0791987,-0.121408)">
        <circle cx="28.5" cy="28.5" r="24.5" style="fill:rgb(119,119,119);"/>
    </g>
    <circle id="cir_11" serif:id="cir_1" cx="28.5" cy="28.5" r="24.5" style="fill:rgb(250,250,250);"/>
    <circle id="cir_2" cx="28.5" cy="28.5" r="22.05" style="fill:rgb(250,250,250);stroke:rgb(255,0,0);stroke-width:2px;"/>
    <g>
        <path d="M22.06,14.349C21.838,14.571 21.749,14.853 21.749,15.298C21.749,17.569 19.167,22.496 15.917,26.428C15.219,27.259 14.344,28.239 13.973,28.61C12.964,29.574 13.112,30.168 14.269,29.797C15.026,29.545 17.505,27.63 18.603,26.473C19.107,25.939 19.552,25.493 19.597,25.493C19.731,25.493 19.671,31.177 19.508,32.899C19.419,33.833 19.181,35.243 18.959,36.015C18.484,37.781 18.484,38.36 19.003,39.591C19.493,40.779 19.745,41.075 20.265,41.075C20.769,41.075 20.933,40.882 21.289,39.873C21.645,38.805 21.734,37.736 21.897,32.023C21.971,29.367 22.105,26.844 22.209,26.413C22.417,25.434 22.342,25.167 21.615,24.217L21.036,23.46L21.778,22.303C22.179,21.665 22.981,20.314 23.559,19.275C24.138,18.251 24.761,17.213 24.954,16.99C25.147,16.753 25.31,16.426 25.31,16.263C25.31,15.877 24.123,14.705 23.47,14.438C22.52,14.052 22.372,14.037 22.06,14.349Z" style="fill:rgb(255,0,0);fill-rule:nonzero;"/>
        <path d="M37.108,14.067C35.758,14.438 32.107,15.031 28.976,15.387C27.611,15.536 26.394,15.743 26.275,15.847C25.963,16.1 25.993,16.53 26.364,17.302C26.676,17.925 26.676,18.073 26.601,22.496C26.542,25.627 26.453,27.423 26.29,28.239C26.171,28.892 26.097,29.589 26.156,29.797C26.29,30.42 26.809,31.236 27.18,31.429C27.462,31.593 27.596,31.563 28.071,31.296C29.362,30.524 33.309,29.841 37.212,29.693C39.112,29.619 39.75,29.649 39.928,29.797C40.091,29.931 40.15,30.302 40.15,31.355C40.15,32.899 39.928,35.392 39.69,36.623C39.423,37.959 38.533,39.443 37.999,39.443C37.88,39.443 37.212,39.131 36.5,38.76C35.238,38.093 34.882,38.033 34.719,38.464C34.615,38.716 37.153,42.396 37.731,42.856C38.266,43.272 38.666,43.227 39.497,42.678C41.412,41.387 42.302,39.057 42.673,34.338C42.866,31.964 43,31.207 43.415,30.302C43.578,29.96 43.712,29.53 43.712,29.367C43.712,28.981 42.955,28.357 41.798,27.823C40.714,27.319 40.492,27.289 38.518,27.541C37.746,27.63 36.618,27.749 36.04,27.808L34.956,27.897L34.956,26.784C34.956,26.161 35.031,25.612 35.105,25.568C35.194,25.508 36.04,25.375 37.004,25.271C37.969,25.152 38.874,25.018 39.037,24.959C39.497,24.796 39.854,24.44 39.854,24.143C39.854,23.505 37.613,22.867 36.262,23.119C35.016,23.356 35.045,23.386 35.164,22.347C35.224,21.828 35.283,21.398 35.298,21.383C35.313,21.368 36.099,21.264 37.034,21.13C38.904,20.893 39.201,20.819 39.601,20.477C40.239,19.928 39.72,19.439 38.073,19.053C37.36,18.89 36.96,18.875 36.277,18.993C35.787,19.082 35.357,19.127 35.342,19.097C35.313,19.068 35.342,18.608 35.431,18.073C35.505,17.539 35.535,17.005 35.505,16.886C35.461,16.693 35.802,16.589 37.39,16.337C39.631,15.966 40.432,15.729 40.655,15.358C40.892,14.987 40.64,14.645 39.824,14.245C38.889,13.77 38.31,13.74 37.108,14.067ZM32.256,17.287C32.33,17.435 32.434,18.029 32.478,18.622C32.567,19.691 32.567,19.691 32.166,19.765C31.306,19.943 29.822,20.151 29.406,20.151L28.976,20.151L29.065,18.801C29.109,18.059 29.198,17.406 29.243,17.346C29.332,17.272 30.119,17.183 31.795,17.064C31.974,17.049 32.181,17.153 32.256,17.287ZM32.552,22.778L32.508,23.787L31.766,23.891C31.365,23.95 30.534,24.054 29.955,24.128L28.872,24.247L28.872,22.08L29.807,22.065C30.311,22.065 31.068,22.006 31.469,21.932C31.885,21.872 32.3,21.813 32.404,21.798C32.552,21.783 32.582,22.036 32.552,22.778ZM32.582,27.022L32.582,28.254L30.994,28.506C30.104,28.654 29.243,28.803 29.065,28.847C28.724,28.936 28.724,28.921 28.724,27.512L28.724,26.087L29.733,26.072C30.564,26.057 32.419,25.894 32.552,25.805C32.567,25.805 32.582,26.339 32.582,27.022Z" style="fill:rgb(255,0,0);fill-rule:nonzero;"/>
        <path d="M27.433,32.72C27.314,33.002 27.507,33.73 28.13,35.466C28.709,37.054 29.035,37.514 29.629,37.514C30.356,37.514 30.653,37.069 30.653,35.97C30.653,34.383 30.297,33.7 29.035,32.899C28.293,32.409 27.581,32.335 27.433,32.72Z" style="fill:rgb(255,0,0);fill-rule:nonzero;"/>
        <path d="M30.653,31.875C30.519,32.127 30.638,32.453 31.321,33.804C32.597,36.297 33.294,36.816 34.14,35.956C34.571,35.54 34.63,34.679 34.303,33.759C34.021,32.973 33.754,32.72 32.582,32.112C31.439,31.504 30.89,31.444 30.653,31.875Z" style="fill:rgb(255,0,0);fill-rule:nonzero;"/>
        <path d="M25.043,31.83C24.969,31.978 24.865,32.29 24.806,32.528C24.746,32.75 24.361,33.685 23.945,34.605C23.277,36.045 23.173,36.371 23.173,37.232C23.159,38.018 23.218,38.285 23.455,38.553C24.494,39.71 25.503,38.909 26.201,36.401C26.676,34.739 26.661,33.359 26.186,32.394C25.8,31.593 25.296,31.34 25.043,31.83Z" style="fill:rgb(255,0,0);fill-rule:nonzero;"/>
        <path d="M34.392,30.717C34.021,31.088 34.289,31.726 35.698,33.819C36.411,34.843 36.797,35.139 37.435,35.139C38.266,35.139 38.637,34.486 38.459,33.284C38.31,32.364 37.761,31.771 36.515,31.192C35.224,30.598 34.645,30.465 34.392,30.717Z" style="fill:rgb(255,0,0);fill-rule:nonzero;"/>
    </g>
</svg>
